docs/img/about/icon-2.svg

<svg width="70" height="71" viewBox="0 0 70 71" fill="none" xmlns="http://www.w3.org/2000/svg">
<path d="M34.9999 33.0769C38.8677 33.0769 42.577 34.6134 45.3119 37.3483C48.0468 40.0832 49.5833 43.7925 49.5833 47.6602V65.1602H20.4166V47.6602C20.4166 43.7925 21.953 40.0832 24.6879 37.3483C27.4229 34.6134 31.1322 33.0769 34.9999 33.0769ZM15.4233 41.8444C14.9591 43.41 14.6849 45.0258 14.6066 46.6569L14.5833 47.6602V65.1602H5.83325V52.0352C5.83268 49.5198 6.76083 47.0928 8.43969 45.2196C10.1185 43.3464 12.4299 42.1591 14.9303 41.8852L15.4262 41.8444H15.4233ZM54.5766 41.8444C57.1722 42.0026 59.6096 43.1451 61.3917 45.0388C63.1738 46.9326 64.1662 49.4349 64.1666 52.0352V65.1602H55.4166V47.6602C55.4166 45.639 55.1249 43.6877 54.5766 41.8444ZM16.0416 24.3269C17.9755 24.3269 19.8301 25.0951 21.1976 26.4626C22.565 27.83 23.3333 29.6847 23.3333 31.6186C23.3333 33.5524 22.565 35.4071 21.1976 36.7746C19.8301 38.142 17.9755 38.9102 16.0416 38.9102C14.1077 38.9102 12.2531 38.142 10.8856 36.7746C9.51815 35.4071 8.74992 33.5524 8.74992 31.6186C8.74992 29.6847 9.51815 27.83 10.8856 26.4626C12.2531 25.0951 14.1077 24.3269 16.0416 24.3269ZM53.9583 24.3269C55.8921 24.3269 57.7468 25.0951 59.1142 26.4626C60.4817 27.83 61.2499 29.6847 61.2499 31.6186C61.2499 33.5524 60.4817 35.4071 59.1142 36.7746C57.7468 38.142 55.8921 38.9102 53.9583 38.9102C52.0244 38.9102 50.1697 38.142 48.8023 36.7746C47.4348 35.4071 46.6666 33.5524 46.6666 31.6186C46.6666 29.6847 47.4348 27.83 48.8023 26.4626C50.1697 25.0951 52.0244 24.3269 53.9583 24.3269ZM34.9999 6.8269C38.0941 6.8269 41.0616 8.05607 43.2495 10.244C45.4374 12.4319 46.6666 15.3994 46.6666 18.4936C46.6666 21.5878 45.4374 24.5552 43.2495 26.7432C41.0616 28.9311 38.0941 30.1602 34.9999 30.1602C31.9057 30.1602 28.9383 28.9311 26.7503 26.7432C24.5624 24.5552 23.3333 21.5878 23.3333 18.4936C23.3333 15.3994 24.5624 12.4319 26.7503 10.244C28.9383 8.05607 31.9057 6.8269 34.9999 6.8269Z" fill="white"/>
</svg>

<svg width="70" height="71" fill="none" xmlns="http://www.w3.org/2000/svg"><path d="M35 33.077A14.583 14.583 0 0149.583 47.66v17.5H20.417v-17.5A14.583 14.583 0 0135 33.077zm-19.577 8.767a20.365 20.365 0 00-.816 4.813l-.024 1.003v17.5h-8.75V52.035a10.208 10.208 0 019.097-10.15l.496-.04h-.003zm39.154 0a10.211 10.211 0 019.59 10.191V65.16h-8.75v-17.5a20.38 20.38 0 00-.84-5.816zM16.042 24.327a7.292 7.292 0 110 14.583 7.292 7.292 0 010-14.583zm37.916 0a7.291 7.291 0 110 14.583 7.291 7.291 0 010-14.583zM35 6.827a11.667 11.667 0 110 23.333 11.667 11.667 0 010-23.333z" fill="#fff"/></svg>
